figures-source/3.18.svg

<svg xmlns:rdf="http://www.w3.org/1999/02/22-rdf-syntax-ns#" xmlns="http://www.w3.org/2000/svg" height="98.74" width="479.02" version="1.1" xmlns:cc="http://creativecommons.org/ns#" xmlns:dc="http://purl.org/dc/elements/1.1/">
 <metadata>
  <rdf:RDF>
   <cc:Work rdf:about="">
    <dc:format>image/svg+xml</dc:format>
    <dc:type rdf:resource="http://purl.org/dc/dcmitype/StillImage"/>
    <dc:title/>
   </cc:Work>
  </rdf:RDF>
 </metadata>
 <defs>
  <marker id="Arrow1Lend" refY="0" refX="0" orient="auto">
   <path style="marker-start:none;" d="m-10,0,0-2,10,2-10,2z" fill-rule="evenodd" stroke="#000" stroke-width="1px"/>
  </marker>
 </defs>
 <g transform="translate(-78.977997,-77)">
  <rect rx="8.2654" ry="18" height="36" width="47.465" stroke="#616161" y="137.74" x="160.59" stroke-width="3px" fill="#d3f5d6"/>
  <text font-family="Courier New" font-size="12px" stroke="#000000" y="137.74001" x="160.591" stroke-width="0px" fill="#000000">
   <tspan font-size="12px" fill="#000000" style="text-anchor:middle;text-align:center;" stroke="#000000" y="161.74001" x="184.32339" font-family="&apos;Courier" text-align="center">C2</tspan>
  </text>
  <rect rx="8.2654" ry="18" height="36" width="47.465" stroke="#616161" y="137.74" x="92.606" stroke-width="3px" fill="#d3f5d6"/>
  <text font-family="Courier New" font-size="12px" stroke="#000000" y="137.74001" x="92.605904" stroke-width="0px" fill="#000000">
   <tspan font-size="12px" fill="#000000" style="text-anchor:middle;text-align:center;" stroke="#000000" y="161.74001" x="116.3383" font-family="&apos;Courier" text-align="center">C1</tspan>
  </text>
  <path style="marker-start:none;marker-end:url(#Arrow1Lend);" fill="none" d="m159.09,155.74-17.52,0" stroke="#000"/>
  <rect height="36" width="70.022" stroke="#616161" y="78" x="79.978" stroke-width="2px" fill="#EEE"/>
  <text font-family="Luxi Sans" font-size="10px" stroke="#cccccc" y="78" x="79.977997" stroke-width="0px" fill="#cccccc">
   <tspan font-size="10px" fill="#777777" style="text-anchor:middle;text-align:center;" stroke="#777777" y="101" x="115.9891" font-family="&apos;LucidaGrande" text-align="center">master</tspan>
  </text>
  <path style="marker-start:none;marker-end:url(#Arrow1Lend);" fill="none" d="m116.09,115,0.116,21.74" stroke="#000"/>
  <rect rx="8.2654" ry="18" height="36" width="47.465" stroke="#616161" y="138.24" x="228.58" stroke-width="3px" fill="#d3f5d6"/>
  <text font-family="Courier New" font-size="12px" stroke="#000000" y="138.24001" x="228.577" stroke-width="0px" fill="#000000">
   <tspan font-size="12px" fill="#000000" style="text-anchor:middle;text-align:center;" stroke="#000000" y="162.24001" x="252.3094" font-family="&apos;Courier" text-align="center">C3</tspan>
  </text>
  <path style="marker-start:none;marker-end:url(#Arrow1Lend);" fill="none" d="m227.08,156.05-17.522-0.128" stroke="#000"/>
  <rect rx="8.2654" ry="18" height="36" width="47.465" stroke="#616161" y="138.24" x="296" stroke-width="3px" fill="#d3f5d6"/>
  <text font-family="Courier New" font-size="12px" stroke="#000000" y="138.24001" x="296" stroke-width="0px" fill="#000000">
   <tspan font-size="12px" fill="#000000" style="text-anchor:middle;text-align:center;" stroke="#000000" y="162.24001" x="320" font-family="&apos;Courier" text-align="center">C4</tspan>
  </text>
  <path style="marker-start:none;marker-end:url(#Arrow1Lend);" fill="none" d="m295.08,156.05-17.522-0.128" stroke="#000"/>
  <rect rx="8.2654" ry="18" height="36" width="47.465" stroke="#616161" y="138.24" x="364" stroke-width="3px" fill="#d3f5d6"/>
  <text font-family="Courier New" font-size="12px" stroke="#000000" y="138.24001" x="364" stroke-width="0px" fill="#000000">
   <tspan font-size="12px" fill="#000000" style="text-anchor:middle;text-align:center;" stroke="#000000" y="162.24001" x="388" font-family="&apos;Courier" text-align="center">C5</tspan>
  </text>
  <path style="marker-start:none;marker-end:url(#Arrow1Lend);" fill="none" d="m363.08,156.05-18.522-0.128" stroke="#000"/>
  <rect rx="8.2654" ry="18" height="36" width="47.465" stroke="#616161" y="138.24" x="432" stroke-width="3px" fill="#d3f5d6"/>
  <text font-family="Courier New" font-size="12px" stroke="#000000" y="138.24001" x="432" stroke-width="0px" fill="#000000">
   <tspan font-size="12px" fill="#000000" style="text-anchor:middle;text-align:center;" stroke="#000000" y="162.24001" x="456" font-family="&apos;Courier" text-align="center">C6</tspan>
  </text>
  <path style="marker-start:none;marker-end:url(#Arrow1Lend);" fill="none" d="m432.08,156.05-19.522-0.128" stroke="#000"/>
  <rect rx="8.2654" ry="18" height="36" width="47.465" stroke="#616161" y="138.24" x="500" stroke-width="3px" fill="#d3f5d6"/>
  <text font-family="Courier New" font-size="12px" stroke="#000000" y="138.24001" x="500" stroke-width="0px" fill="#000000">
   <tspan font-size="12px" fill="#000000" style="text-anchor:middle;text-align:center;" stroke="#000000" y="162.24001" x="524" font-family="&apos;Courier" text-align="center">C7</tspan>
  </text>
  <path style="marker-start:none;marker-end:url(#Arrow1Lend);" fill="none" d="m500.08,156.05-19.522-0.128" stroke="#000"/>
  <rect height="36" width="70.022" stroke="#616161" y="78" x="350.98" stroke-width="2px" fill="#EEE"/>
  <text font-family="Luxi Sans" font-size="10px" stroke="#cccccc" y="78" x="350.978" stroke-width="0px" fill="#cccccc">
   <tspan font-size="10px" fill="#777777" style="text-anchor:middle;text-align:center;" stroke="#777777" y="101" x="387.98911" font-family="&apos;LucidaGrande" text-align="center">develop</tspan>
  </text>
  <path style="marker-start:none;marker-end:url(#Arrow1Lend);" fill="none" d="m388.09,115,0.116,21.74" stroke="#000"/>
  <rect height="36" width="70.022" stroke="#616161" y="78" x="486.98" stroke-width="2px" fill="#EEE"/>
  <text font-family="Luxi Sans" font-size="10px" stroke="#cccccc" y="78" x="486.978" stroke-width="0px" fill="#cccccc">
   <tspan font-size="10px" fill="#777777" style="text-anchor:middle;text-align:center;" stroke="#777777" y="101" x="523.98907" font-family="&apos;LucidaGrande" text-align="center">topic</tspan>
  </text>
  <path style="marker-start:none;marker-end:url(#Arrow1Lend);" fill="none" d="m524.09,115,0.116,21.74" stroke="#000"/>
 </g>
</svg>

<?xml version="1.0" encoding="utf-8"?>
<svg xmlns="http://www.w3.org/2000/svg" xmlns:xlink="http://www.w3.org/1999/xlink">
	<defs>
		<marker id="Arrow1Lend" orient="auto" refX="0.0" refY="0.0" style="overflow:visible;">
			
              
			<path d="M -10,0.0 L -10.0,-2.0 L 0.0,0.0 L -10.0,2.0 z " id="path3666" style="fill-rule:evenodd;stroke:#000000;stroke-width:1.0px;marker-start:none;"/>
			
            
		</marker>
	</defs>
	<g style="stroke:#000000;fill:#fff">
		<rect height="36.0" id="1343" rx="8.26544135391" ry="18.0" style="stroke:#616161;stroke-width:3.000000px;fill:#d3f5d6" width="47.4648" x="160.591" y="137.74"/>
		<text id="1343_text" style="fill:#000000;stroke:#000000;stroke-width:0px;font-family: Courier New;font-size:12px" x="160.591" y="137.74">
			<tspan fill="#000000" font-family="Courier;" font-size="12.0px" id="1343_line1" stroke="#000000" text-align="center" text-anchor="middle" x="184.3234" y="161.74">
				C2
			</tspan>
		</text>
		<rect height="36.0" id="1344" rx="8.26544135391" ry="18.0" style="stroke:#616161;stroke-width:3.000000px;fill:#d3f5d6" width="47.4648" x="92.6059" y="137.74"/>
		<text id="1344_text" style="fill:#000000;stroke:#000000;stroke-width:0px;font-family: Courier New;font-size:12px" x="92.6059" y="137.74">
			<tspan fill="#000000" font-family="Courier;" font-size="12.0px" id="1344_line1" stroke="#000000" text-align="center" text-anchor="middle" x="116.3383" y="161.74">
				C1
			</tspan>
		</text>
		<path d="M 159.091,155.74 L 141.571,155.74" id="1348" style="marker-start:none;stroke:#000000;marker-end:url(#Arrow1Lend);fill:none"/>
		<rect height="36.0" id="1352" style="stroke:#616161;stroke-width:2.000000px;fill:#eeeeee" width="70.0222" x="79.978" y="78.0"/>
		<text id="1352_text" style="fill:#cccccc;stroke:#cccccc;stroke-width:0px;font-family: Luxi Sans;font-size:10px" x="79.978" y="78.0">
			<tspan fill="#777777" font-family="LucidaGrande;" font-size="10.0px" id="1352_line1" stroke="#777777" text-align="center" text-anchor="middle" x="115.9891" y="101.0">
				master
			</tspan>
		</text>
		<path d="M 116.09,115.0 L 116.206,136.74" id="1353" style="marker-start:none;stroke:#000000;marker-end:url(#Arrow1Lend);fill:none"/>
		<rect height="36.0" id="1354" rx="8.26544135391" ry="18.0" style="stroke:#616161;stroke-width:3.000000px;fill:#d3f5d6" width="47.4648" x="228.577" y="138.24"/>
		<text id="1354_text" style="fill:#000000;stroke:#000000;stroke-width:0px;font-family: Courier New;font-size:12px" x="228.577" y="138.24">
			<tspan fill="#000000" font-family="Courier;" font-size="12.0px" id="1354_line1" stroke="#000000" text-align="center" text-anchor="middle" x="252.3094" y="162.24">
				C3
			</tspan>
		</text>
		<path d="M 227.077,156.054 L 209.555,155.926" id="1355" style="marker-start:none;stroke:#000000;marker-end:url(#Arrow1Lend);fill:none"/>
		<rect height="36.0" id="1356" rx="8.26544135391" ry="18.0" style="stroke:#616161;stroke-width:3.000000px;fill:#d3f5d6" width="47.4648" x="296.0" y="138.24"/>
		<text id="1356_text" style="fill:#000000;stroke:#000000;stroke-width:0px;font-family: Courier New;font-size:12px" x="296.0" y="138.24">
			<tspan fill="#000000" font-family="Courier;" font-size="12.0px" id="1356_line1" stroke="#000000" text-align="center" text-anchor="middle" x="320.0" y="162.24">
				C4
			</tspan>
		</text>
		<path d="M 295.077,156.054 L 277.555,155.926" id="1357" style="marker-start:none;stroke:#000000;marker-end:url(#Arrow1Lend);fill:none"/>
		<rect height="36.0" id="1358" rx="8.26544135391" ry="18.0" style="stroke:#616161;stroke-width:3.000000px;fill:#d3f5d6" width="47.4648" x="364.0" y="138.24"/>
		<text id="1358_text" style="fill:#000000;stroke:#000000;stroke-width:0px;font-family: Courier New;font-size:12px" x="364.0" y="138.24">
			<tspan fill="#000000" font-family="Courier;" font-size="12.0px" id="1358_line1" stroke="#000000" text-align="center" text-anchor="middle" x="388.0" y="162.24">
				C5
			</tspan>
		</text>
		<path d="M 363.077,156.054 L 344.555,155.926" id="1359" style="marker-start:none;stroke:#000000;marker-end:url(#Arrow1Lend);fill:none"/>
		<rect height="36.0" id="1360" rx="8.26544135391" ry="18.0" style="stroke:#616161;stroke-width:3.000000px;fill:#d3f5d6" width="47.4648" x="432.0" y="138.24"/>
		<text id="1360_text" style="fill:#000000;stroke:#000000;stroke-width:0px;font-family: Courier New;font-size:12px" x="432.0" y="138.24">
			<tspan fill="#000000" font-family="Courier;" font-size="12.0px" id="1360_line1" stroke="#000000" text-align="center" text-anchor="middle" x="456.0" y="162.24">
				C6
			</tspan>
		</text>
		<path d="M 432.077,156.054 L 412.555,155.926" id="1361" style="marker-start:none;stroke:#000000;marker-end:url(#Arrow1Lend);fill:none"/>
		<rect height="36.0" id="1362" rx="8.26544135391" ry="18.0" style="stroke:#616161;stroke-width:3.000000px;fill:#d3f5d6" width="47.4648" x="500.0" y="138.24"/>
		<text id="1362_text" style="fill:#000000;stroke:#000000;stroke-width:0px;font-family: Courier New;font-size:12px" x="500.0" y="138.24">
			<tspan fill="#000000" font-family="Courier;" font-size="12.0px" id="1362_line1" stroke="#000000" text-align="center" text-anchor="middle" x="524.0" y="162.24">
				C7
			</tspan>
		</text>
		<path d="M 500.077,156.054 L 480.555,155.926" id="1363" style="marker-start:none;stroke:#000000;marker-end:url(#Arrow1Lend);fill:none"/>
		<rect height="36.0" id="1364" style="stroke:#616161;stroke-width:2.000000px;fill:#eeeeee" width="70.0222" x="350.978" y="78.0"/>
		<text id="1364_text" style="fill:#cccccc;stroke:#cccccc;stroke-width:0px;font-family: Luxi Sans;font-size:10px" x="350.978" y="78.0">
			<tspan fill="#777777" font-family="LucidaGrande;" font-size="10.0px" id="1364_line1" stroke="#777777" text-align="center" text-anchor="middle" x="387.9891" y="101.0">
				develop
			</tspan>
		</text>
		<path d="M 388.09,115.0 L 388.206,136.74" id="1364" style="marker-start:none;stroke:#000000;marker-end:url(#Arrow1Lend);fill:none"/>
		<rect height="36.0" id="1366" style="stroke:#616161;stroke-width:2.000000px;fill:#eeeeee" width="70.0222" x="486.978" y="78.0"/>
		<text id="1366_text" style="fill:#cccccc;stroke:#cccccc;stroke-width:0px;font-family: Luxi Sans;font-size:10px" x="486.978" y="78.0">
			<tspan fill="#777777" font-family="LucidaGrande;" font-size="10.0px" id="1366_line1" stroke="#777777" text-align="center" text-anchor="middle" x="523.9891" y="101.0">
				topic
			</tspan>
		</text>
		<path d="M 524.09,115.0 L 524.206,136.74" id="1367" style="marker-start:none;stroke:#000000;marker-end:url(#Arrow1Lend);fill:none"/>
	</g>
</svg>
